X:108
T:Orange and Blue. RHu.108
S:R.Hughes MS,1823,Whitchurch,Shrops.
N:A well known Scots tune which is not in its normal time sig.
A:Whitchurch , Shropshire
Z:Neil Brookes 2007
M:4/4
L:1/8
Q:1/2=80
K:C
cd|ec c2Gcc2|ec e/g/ec2c2|fdd2 Bdd2|fd f/a/f d2d2|!
ec c2Gcc2|ec e/g/ec2c2|af ge f/e/d/c/ BGB/d/B|c2c2::!
eg (3agf eg (3agf|ec e/g/e c2c2|fa (3bag fa (3bag|fd f/a/f d2d2|!
eg (3agf eg (3agf|ec e/g/e c2c2|afge fedc|BG B/d/Bc2c2:|

